X:1
T:Title
%%score { ( 1 5 ) | ( 2 3 4 ) }
L:1/8
Q:1/4=116
M:3/4
K:F
V:1 treble nm="Grand Piano"
V:5 treble 
V:2 bass 
V:3 bass 
V:4 bass 
V:1
 [CA]2 _A2 =A2 | F6 | [DF]2 E2 F2 | D6[K:bass] | [A,C]2 F2 G2 | A2 B2 A2 | [CG]6- | [CG]4 z2 | %8
w: Jay~Arthur~Ford * *||||||||
 [CA]2 _A2 =A2 | F6 | [DF]2 E2 F2 | D6 | [A,C]2 F2 G2 | [CA]4 G2 | [A,F]6- | [A,F]4 z2 | %16
w: ||||||||
 [CE]2 [CE]2 [DF]2 | [B,EG]4 [_E^F]2 | [B,EG]4 [_E^F]2 | [B,EG]6 | C2 D2 E2 | [A,F]4 [B,G]2 | %22
w: ||||||
 [CA]4 _A2 | [CA]6 | [CA]2 F2 D2 | [A,C]6 | [CA]2 F2 C2 | [B,D]6 | [A,C]2 F2 B2 | [CA]4 [B,G]2 | %30
w: ||||||||
 [A,F]6- | [A,F]4 z2 | [EG]2 [EG]3 [FA] | [EB]4 E2 | F4 [EG]2 | A6 | A2 A3 A | A6 | F2 E2 F2 | %39
w: |||||||||
 [EG]6 | A2 _A2 =A2 | F6 | [DF]2 [^CE]2 [DF]2 | D6 | C2 F2 [EB]2 | [FA]4 [CG]2 | [A,CF]6- | %47
w: ||||||||
 [A,CF]4 z2 |] %48
w: |
V:2
 z6 | A,6 | z2 ^C2 D2 | B,6 | z2 A,2 B,2 | C2 D2 C2 | C,2 C,2 D,2 | E,2 F,2 G,2 | z6 | A,6 | z6 | %11
 B,6 | z2 A,2 B,2 | z2 z2 B,2 | F,2 C,2 A,,2 | F,,4 z2 | C,2 E,2 G,2 | z2 z2 A,2 | z2 z2 A,2 | %19
 C,2 E,2 G,2 | C,2 [C,=B,]2 _B,2 | F,,2 A,,2 C,2 | z2 z2 =B,2 | F,2 C,2 A,,2 | z2 A,2 B,2 | %25
 [F,,F,]4 z2 | z2 A,2 A,2 | B,,6 | z2 C2 D2 | C,2 D,2 E,2 | F,2 C,2 A,,2 | F,,4 z2 | %32
 [C,C]2 [C,C]3 [C,C] | [C,C]4 [C,B,]2 | [D,A,D]4 [C,C]2 | [F,CF]6 | [F,CF]2 [F,CF]3 [F,CF] | %37
 [A,^CE]6 | [D,D]2 [D,A,D]2 [G,=B,D]2 | [C,C]6 | [F,CF]2 [F,=B,F]2 [F,CF]2 | [F,A,C]6 | %42
 [B,,B,]2 [B,,B,]2 [B,,B,]2 | [B,,F,B,]6 | [C,F,A,]2 [C,A,C]2 [C,G,]2 | [C,C]4 [C,B,]2 | %46
 [F,,F,]6- | [F,,F,]4 z2 |] %48
V:3
 z2 =B,2 C2 | z2 C,2 A,,2 | B,,6- | B,,2 z2 z2 | [F,,F,]6- | [F,,F,]4 z2 | x6 | x6 | z2 =B,2 C2 | %9
 z2 A,,2 C,2 | z2 ^C2 D2 | z2 D,2 F,2 | C,6 | [C,,C,]6 | x6 | x6 | x6 | C,6 | C,6 | x6 | x6 | x6 | %22
 F,6 | x6 | [F,,F,]4 z2 | x6 | [F,,F,]4 z2 | x6 | C,4 z2 | x6 | x6 | x6 | x6 | x6 | x6 | x6 | x6 | %37
 x6 | x6 | x6 | x6 | x6 | x6 | x6 | x6 | x6 | x6 | x6 |] %48
V:4
 [F,,F,]6- | [F,,F,]2 z2 z2 | x6 | x6 | x6 | x6 | x6 | x6 | [F,,F,]6- | [F,,F,]2 z2 z2 | B,,6- | %11
 B,,2 z2 z2 | x6 | x6 | x6 | x6 | x6 | x6 | x6 | x6 | x6 | x6 | x6 | x6 | x6 | x6 | x6 | x6 | x6 | %29
 x6 | x6 | x6 | x6 | x6 | x6 | x6 | x6 | x6 | x6 | x6 | x6 | x6 | x6 | x6 | x6 | x6 | x6 | x6 |] %48
V:5
 x6 | x6 | x6 | z2[K:bass] B,,2 D,2 | x6 | x6 | x6 | x6 | x6 | x6 | x6 | x6 | x6 | x6 | x6 | x6 | %16
 x6 | x6 | x6 | x6 | x6 | x6 | x6 | x6 | x6 | x6 | x6 | x6 | x6 | x6 | x6 | x6 | x6 | x6 | x6 | %35
 x6 | x6 | x6 | x6 | x6 | x6 | x6 | x6 | x6 | x6 | x6 | x6 | x6 |] %48

